X: 36671
T: Shaun Davey's
R: polka
M: 2/4
K: Gmajor
|:G>A Bc|A3 B|cB AG|GF D2|G>A Bc|A3 d|dc AF|1 G2 GD:|2 G2 Bc]
d2 de|d2cB|A>G AB|A2 Bc|d4|ed cB|A2 AB|A2 Bc|
d2 de|d2cB|A>G AB|A2 BA|G3 A|BA GF|E3 F|E2 D2|

